X:2
T:The Kildare Fancy
M:4/4
L:1/8
Q:232
S:Darcie's TrTuneSbk Vo.2 (1998) p. 26
R:Reel
Z: Wosika
K:D
|: dB| "D"AFDF AFdB| ~A2 FA fedc| "G"BABd "Emin"gefd| "A"ed cB A2 dB|
"D"AFDF AFdB| ((3ABA) FA fedc| "G"BABd "Emin"gefd| "A"ec ((3ABc) "D"d2::
 de| "D"fdcd BdAF| Ddcd fdcd| "A"eA ~A2 "D"fA ~A2 | "A"edcB A2 de|
"D"fdcd BdAF| Ddcd fdcd| "A"eAfA gA fA| ec ((3ABc) "D"d2:|
